X: 23416
T: Les Filles De Mon Pays
R: hornpipe
M: 4/4
K: Gmajor
|:G2 BA G2 BA|GABc d4|B3 d dBGA|B2 cB A4|
G2 BA G2 BA|GABc d4|B3 d dBGA|1 B2 A2 G2 D2:|2 B2 A2 G2 z2||
|:d2 gf e3 d|cd e2 d4|B3 d dBGA|B2 cB A4|
d2 gf e3 d|cd e2 d4|B3 d dBGA|1 B2 A2 G2 z2:|2 B2 A2 G4||

